X:65
T:Dawn
Z: id:dc-reel-59
M:C
L:1/8
K:G Major
G,2B,D C2EG|D2FA GBdB|cdeg dBGB|A2BA AGEG|!
G,2B,D C2EG|D2FA GBdB|cdeg dBGB|ABGA BGG2:|!
B2dB eBdB|GABG AGEG|D2B,D GBdB|cdef gded|!
B2dB eBdB|GABG AGEG|DGBd cdeg|dBAc BGG2:|!

